X: 1005
T: Inner Temple Jigg.
%R: jig
B: Henry Playford "Apollo's Banquet", London 1687 (5th Edition)
F: https://archive.org/details/apollosbanquetco01rugg
Z: 2017 John Chambers <jc:trillian.mit.edu>
M: 6/4
L: 1/4
K: Dmix
% - - - - - - - - - -
B |\
AFA d2B | AFA d>ef | e3 EFG |\
AFA d>cB | gaf e>cA | d3 D2 :|
|: B |\
AF2- F2B | A2F F>ED | E3- E>dc |\
BG2 G>AB | A2f efc | d3 D2 |]
% - - - - - - - - - -

%%sep 1 1 500
%%sep 1 1 500

